austria/municipalities/70820.svg

<?xml version="1.0" encoding="UTF-8"?>
<!DOCTYPE svg PUBLIC "-//W3C//DTD SVG 1.1//EN" "http://www.w3.org/Graphics/SVG/1.1/DTD/svg11.dtd">
<svg xmlns="http://www.w3.org/2000/svg" version="1.1" width="166px" height="192px" style="shape-rendering:geometricPrecision; text-rendering:geometricPrecision; image-rendering:optimizeQuality; fill-rule:evenodd; clip-rule:evenodd" xmlns:xlink="http://www.w3.org/1999/xlink">
<g><path style="opacity:1" fill="#040303" d="M -0.5,-0.5 C 54.8333,-0.5 110.167,-0.5 165.5,-0.5C 165.5,39.8333 165.5,80.1667 165.5,120.5C 156.716,159.618 132.716,183.285 93.5,191.5C 86.1667,191.5 78.8333,191.5 71.5,191.5C 31.3845,183.051 7.38454,158.718 -0.5,118.5C -0.5,78.8333 -0.5,39.1667 -0.5,-0.5 Z"/></g>
<g><path style="opacity:1" fill="#d73023" d="M 102.5,95.5 C 98.5,98.8333 94.8333,102.5 91.5,106.5C 87.8797,108.453 84.8797,111.119 82.5,114.5C 64.5204,131.478 46.5204,148.478 28.5,165.5C 17.8916,155.962 10.5583,144.296 6.5,130.5C 27.1875,110.145 47.8542,89.8122 68.5,69.5C 72.1002,67.5698 75.1002,64.9031 77.5,61.5C 97.6311,42.537 117.631,23.3703 137.5,4C 145.493,3.50029 153.493,3.33362 161.5,3.5C 161.667,15.1714 161.5,26.8381 161,38.5C 141.3,57.3672 121.8,76.3672 102.5,95.5 Z"/></g>
<g><path style="opacity:1" fill="#f9f9f9" d="M 76.5,61.5 C 73.5,63.8333 70.8333,66.5 68.5,69.5C 63.4266,73.0656 58.7599,77.2323 54.5,82C 45.5438,80.6744 36.5438,79.6744 27.5,79C 24.2718,82.9562 22.2718,87.4562 21.5,92.5C 20.325,92.281 19.325,92.6143 18.5,93.5C 20.1353,97.9226 19.1353,101.589 15.5,104.5C 13.6483,100.335 13.1483,96.0021 14,91.5C 17.5477,84.9013 21.7144,78.7346 26.5,73C 31.1548,72.5008 35.8215,72.3342 40.5,72.5C 43.0241,73.8003 45.6908,73.8003 48.5,72.5C 48.3764,71.8933 48.0431,71.56 47.5,71.5C 42.5222,66.6845 37.1888,62.3512 31.5,58.5C 27.6412,59.2593 24.6412,61.2593 22.5,64.5C 21.3112,65.4287 19.9778,65.762 18.5,65.5C 18.7849,71.2153 16.1182,73.882 10.5,73.5C 11.0922,70.3093 12.2589,67.3093 14,64.5C 18.9072,60.6288 24.0739,57.1288 29.5,54C 31.5,53.3333 33.5,53.3333 35.5,54C 41.7756,58.6339 48.4423,62.4673 55.5,65.5C 55.4207,62.7294 55.9207,60.0627 57,57.5C 60.3033,51.2062 62.97,44.8729 65,38.5C 60.3599,42.6956 54.8599,44.5289 48.5,44C 45.4283,48.0605 41.4283,49.3939 36.5,48C 37.8168,46.3409 39.4835,45.1743 41.5,44.5C 42.661,42.622 41.9944,41.622 39.5,41.5C 37.1279,42.1034 34.9613,43.1034 33,44.5C 30.6807,43.5915 30.0141,41.9248 31,39.5C 35.3348,34.6682 40.1681,30.3348 45.5,26.5C 46.521,25.9984 46.6877,25.3317 46,24.5C 33.243,18.2051 20.4097,12.0384 7.5,6C 8.83333,5.33333 10.1667,5.33333 11.5,6C 16.7233,8.09374 21.89,10.2604 27,12.5C 30.2576,11.4455 32.9242,12.4455 35,15.5C 37.0639,14.4086 39.2305,14.2419 41.5,15C 45.3688,16.6819 49.2021,18.5153 53,20.5C 53.4294,18.3313 52.9294,16.3313 51.5,14.5C 51.8333,14.1667 52.1667,13.8333 52.5,13.5C 53.8498,14.9501 55.5165,15.6168 57.5,15.5C 57.3398,13.8008 57.5065,12.1341 58,10.5C 65.5612,18.0239 74.0612,24.1906 83.5,29C 82.3279,29.4186 81.3279,30.0853 80.5,31C 82.7049,32.706 85.0383,34.206 87.5,35.5C 86.1667,36.1667 84.8333,36.8333 83.5,37.5C 85.8838,39.8847 88.5505,41.8847 91.5,43.5C 90.2713,44.2811 88.938,44.7811 87.5,45C 89.0074,45.8373 89.5074,47.0039 89,48.5C 84.6298,52.7022 80.4632,57.0355 76.5,61.5 Z"/></g>
<g><path style="opacity:1" fill="#141212" d="M 47.5,29.5 C 54.3545,28.686 55.0212,30.0193 49.5,33.5C 47.8888,32.6798 47.2222,31.3464 47.5,29.5 Z"/></g>
<g><path style="opacity:1" fill="#3e1912" d="M 76.5,61.5 C 76.8333,61.5 77.1667,61.5 77.5,61.5C 75.1002,64.9031 72.1002,67.5698 68.5,69.5C 70.8333,66.5 73.5,63.8333 76.5,61.5 Z"/></g>
<g><path style="opacity:1" fill="#f9f9f8" d="M 99.5,133.5 C 100.134,127.504 100.3,121.504 100,115.5C 98.6129,111.678 96.1129,109.011 92.5,107.5C 96.1667,103.5 99.8333,99.5 103.5,95.5C 105.481,93.8564 107.481,92.1897 109.5,90.5C 115.092,93.258 119.592,97.258 123,102.5C 127.496,97.445 132.996,96.1117 139.5,98.5C 145.665,98.5043 148.499,95.5043 148,89.5C 146.786,87.9512 145.286,86.7845 143.5,86C 139.444,85.6488 135.777,84.3155 132.5,82C 136.532,82.244 140.532,82.5774 144.5,83C 141.289,81.148 137.956,79.4814 134.5,78C 132.671,76.8867 131.837,75.3867 132,73.5C 139.486,79.6057 141.153,78.939 137,71.5C 136.333,69.8333 136.333,68.1667 137,66.5C 138.623,72.1242 142.123,75.6242 147.5,77C 145.696,73.7041 145.196,70.2041 146,66.5C 147.561,72.5234 149.894,78.1901 153,83.5C 153,80.8333 153,78.1667 153,75.5C 157.484,83.1964 157.484,90.8631 153,98.5C 151.421,100.041 149.587,101.208 147.5,102C 142.202,102.67 137.036,102.17 132,100.5C 129.019,100.081 126.686,101.081 125,103.5C 125.418,108.465 125.418,113.465 125,118.5C 121.183,124.99 117.349,131.49 113.5,138C 114.82,141.987 117.487,144.654 121.5,146C 123.448,147.439 124.781,149.272 125.5,151.5C 121.9,157.61 118.067,163.61 114,169.5C 112.301,170.406 110.467,170.739 108.5,170.5C 108.624,177.712 105.291,181.045 98.5,180.5C 101.579,172.909 106.412,166.576 113,161.5C 114.889,158.888 116.389,156.055 117.5,153C 116.561,151.056 115.227,149.389 113.5,148C 108.884,145.44 104.718,142.273 101,138.5C 99.9914,136.975 99.4914,135.308 99.5,133.5 Z"/></g>
<g><path style="opacity:1" fill="#84807d" d="M 47.5,71.5 C 48.0431,71.56 48.3764,71.8933 48.5,72.5C 45.6908,73.8003 43.0241,73.8003 40.5,72.5C 43.0593,72.8016 45.3926,72.4682 47.5,71.5 Z"/></g>
<g><path style="opacity:1" fill="#4f4c4a" d="M 102.5,95.5 C 102.833,95.5 103.167,95.5 103.5,95.5C 99.8333,99.5 96.1667,103.5 92.5,107.5C 91.8333,107.5 91.5,107.167 91.5,106.5C 94.8333,102.5 98.5,98.8333 102.5,95.5 Z"/></g>
<g><path style="opacity:1" fill="#f9f9f8" d="M 97.5,127.5 C 92.1903,134.599 92.1903,141.766 97.5,149C 94.3469,153.418 90.0136,156.085 84.5,157C 80.9878,159.257 77.6544,161.757 74.5,164.5C 73.2322,163.572 71.8989,163.405 70.5,164C 68.5232,168.988 64.8565,171.488 59.5,171.5C 59.6423,168.383 60.9756,165.883 63.5,164C 68.8757,160.761 74.5424,158.095 80.5,156C 83.3207,154.178 85.8207,152.011 88,149.5C 88.5205,147.711 88.1871,146.044 87,144.5C 83.3333,142.167 80.3333,139.167 78,135.5C 77.3333,131.5 77.3333,127.5 78,123.5C 80.1761,120.471 82.3427,117.471 84.5,114.5C 86.5056,112.827 88.5056,111.16 90.5,109.5C 93.6551,110.15 96.1551,111.817 98,114.5C 98.7062,118.887 98.5396,123.22 97.5,127.5 Z"/></g>
<g><path style="opacity:1" fill="#2a211f" d="M 91.5,106.5 C 91.5,107.167 91.8333,107.5 92.5,107.5C 96.1129,109.011 98.6129,111.678 100,115.5C 100.3,121.504 100.134,127.504 99.5,133.5C 98.8333,131.5 98.1667,129.5 97.5,127.5C 98.5396,123.22 98.7062,118.887 98,114.5C 96.1551,111.817 93.6551,110.15 90.5,109.5C 88.5056,111.16 86.5056,112.827 84.5,114.5C 83.8333,114.5 83.1667,114.5 82.5,114.5C 84.8797,111.119 87.8797,108.453 91.5,106.5 Z"/></g>
<g><path style="opacity:1" fill="#fdfdfd" d="M -0.5,118.5 C 7.38454,158.718 31.3845,183.051 71.5,191.5C 47.5,191.5 23.5,191.5 -0.5,191.5C -0.5,167.167 -0.5,142.833 -0.5,118.5 Z"/></g>
<g><path style="opacity:1" fill="#fdfdfd" d="M 165.5,120.5 C 165.5,144.167 165.5,167.833 165.5,191.5C 141.5,191.5 117.5,191.5 93.5,191.5C 132.716,183.285 156.716,159.618 165.5,120.5 Z"/></g>
</svg>

<svg xmlns="http://www.w3.org/2000/svg" width="166" height="192" style="shape-rendering:geometricPrecision;text-rendering:geometricPrecision;image-rendering:optimizeQuality;fill-rule:evenodd;clip-rule:evenodd"><path style="opacity:1" fill="#040303" d="M-.5-.5h166v121c-8.784 39.118-32.784 62.785-72 71h-22c-40.115-8.449-64.115-32.782-72-73V-.5z"/><path style="opacity:1" fill="#d73023" d="M102.5 95.5c-4 3.333-7.667 7-11 11a25.907 25.907 0 0 0-9 8c-17.98 16.978-35.98 33.978-54 51-10.608-9.538-17.942-21.204-22-35l62-61c3.6-1.93 6.6-4.597 9-8a4842.355 4842.355 0 0 0 60-57.5c7.993-.5 15.993-.666 24-.5.167 11.671 0 23.338-.5 35a4737.752 4737.752 0 0 0-58.5 57z"/><path style="opacity:1" fill="#f9f9f9" d="M76.5 61.5c-3 2.333-5.667 5-8 8-5.073 3.566-9.74 7.732-14 12.5a374.615 374.615 0 0 0-27-3c-3.228 3.956-5.228 8.456-6 13.5-1.175-.219-2.175.114-3 1 1.635 4.423.635 8.089-3 11-1.852-4.165-2.352-8.498-1.5-13A110.365 110.365 0 0 1 26.5 73c4.655-.5 9.322-.666 14-.5 2.524 1.3 5.19 1.3 8 0-.124-.607-.457-.94-1-1a118.6 118.6 0 0 0-16-13c-3.859.76-6.859 2.76-9 6-1.189.929-2.522 1.262-4 1 .285 5.715-2.382 8.382-8 8a25.936 25.936 0 0 1 3.5-9A129.172 129.172 0 0 1 29.5 54c2-.667 4-.667 6 0a100.12 100.12 0 0 0 20 11.5c-.08-2.77.42-5.437 1.5-8 3.303-6.294 5.97-12.627 8-19-4.64 4.196-10.14 6.029-16.5 5.5-3.072 4.06-7.072 5.394-12 4a10.505 10.505 0 0 1 5-3.5c1.161-1.878.494-2.878-2-3a19.311 19.311 0 0 0-6.5 3c-2.32-.908-2.986-2.575-2-5a90.051 90.051 0 0 1 14.5-13c1.021-.502 1.188-1.168.5-2A2045.482 2045.482 0 0 0 7.5 6c1.333-.667 2.667-.667 4 0A528.086 528.086 0 0 1 27 12.5c3.258-1.055 5.924-.055 8 3 2.064-1.091 4.23-1.258 6.5-.5A178.377 178.377 0 0 1 53 20.5c.43-2.169-.07-4.169-1.5-6l1-1c1.35 1.45 3.017 2.117 5 2-.16-1.7.007-3.366.5-5 7.561 7.524 16.061 13.69 25.5 18.5a7.291 7.291 0 0 0-3 2 47.643 47.643 0 0 0 7 4.5l-4 2a35.085 35.085 0 0 0 8 6 10.253 10.253 0 0 1-4 1.5c1.507.837 2.007 2.004 1.5 3.5a228.244 228.244 0 0 0-12.5 13z"/><path style="opacity:1" fill="#141212" d="M47.5 29.5c6.855-.814 7.521.52 2 4-1.611-.82-2.278-2.154-2-4z"/><path style="opacity:1" fill="#3e1912" d="M76.5 61.5h1c-2.4 3.403-5.4 6.07-9 8 2.333-3 5-5.667 8-8z"/><path style="opacity:1" fill="#f9f9f8" d="M99.5 133.5c.634-5.996.8-11.996.5-18-1.387-3.822-3.887-6.489-7.5-8l11-12a1833.76 1833.76 0 0 0 6-5c5.592 2.758 10.092 6.758 13.5 12 4.496-5.055 9.996-6.388 16.5-4 6.165.004 8.999-2.996 8.5-9a11.529 11.529 0 0 0-4.5-3.5c-4.056-.351-7.723-1.684-11-4 4.032.244 8.032.577 12 1a94.555 94.555 0 0 0-10-5c-1.829-1.113-2.663-2.613-2.5-4.5 7.486 6.106 9.153 5.439 5-2-.667-1.667-.667-3.333 0-5 1.623 5.624 5.123 9.124 10.5 10.5-1.804-3.296-2.304-6.796-1.5-10.5a66.581 66.581 0 0 0 7 17v-8c4.484 7.696 4.484 15.363 0 23a15.83 15.83 0 0 1-5.5 3.5c-5.298.67-10.464.17-15.5-1.5-2.981-.419-5.314.581-7 3a89.869 89.869 0 0 1 0 15c-3.817 6.49-7.651 12.99-11.5 19.5 1.32 3.987 3.987 6.654 8 8 1.948 1.439 3.281 3.272 4 5.5-3.6 6.11-7.433 12.11-11.5 18-1.699.906-3.533 1.239-5.5 1 .124 7.212-3.209 10.545-10 10 3.079-7.591 7.912-13.924 14.5-19a34.624 34.624 0 0 0 4.5-8.5c-.939-1.944-2.273-3.611-4-5a54.73 54.73 0 0 1-12.5-9.5c-1.009-1.525-1.509-3.192-1.5-5z"/><path style="opacity:1" fill="#84807d" d="M47.5 71.5c.543.06.876.393 1 1-2.81 1.3-5.476 1.3-8 0 2.56.302 4.893-.032 7-1z"/><path style="opacity:1" fill="#4f4c4a" d="M102.5 95.5h1l-11 12c-.667 0-1-.333-1-1 3.333-4 7-7.667 11-11z"/><path style="opacity:1" fill="#f9f9f8" d="M97.5 127.5c-5.31 7.099-5.31 14.266 0 21.5-3.153 4.418-7.486 7.085-13 8a86.418 86.418 0 0 0-10 7.5c-1.268-.928-2.601-1.095-4-.5-1.977 4.988-5.644 7.488-11 7.5.142-3.117 1.476-5.617 4-7.5a91.96 91.96 0 0 1 17-8 35.078 35.078 0 0 0 7.5-6.5c.52-1.789.187-3.456-1-5a28.984 28.984 0 0 1-9-9c-.667-4-.667-8 0-12 2.176-3.029 4.343-6.029 6.5-9 2.006-1.673 4.006-3.34 6-5 3.155.65 5.655 2.317 7.5 5 .706 4.387.54 8.72-.5 13z"/><path style="opacity:1" fill="#2a211f" d="M91.5 106.5c0 .667.333 1 1 1 3.613 1.511 6.113 4.178 7.5 8 .3 6.004.134 12.004-.5 18l-2-6a32.591 32.591 0 0 0 .5-13c-1.845-2.683-4.345-4.35-7.5-5-1.994 1.66-3.994 3.327-6 5h-2a25.907 25.907 0 0 1 9-8z"/><path style="opacity:1" fill="#fdfdfd" d="M-.5 118.5c7.885 40.218 31.884 64.551 72 73h-72v-73zM165.5 120.5v71h-72c39.216-8.215 63.216-31.882 72-71z"/></svg>
